!!!OTL: So reiden de Heren, S. 10f
!!!id: L0004
**kern
*clefG2
*k[]
*A:
{8e
=1
4a
8a
8cc#
=2
4a
8a}
=3
{8e
=4
8a
8a
8a
8cc#
=5
4a
8a}
=6
{8e
=7
4a
8a
8cc#
=8
8a
8a
8a}
=9
{8d
=10
8a
8a
16a
16a
16a
16cc#
=11
8a
8a
8a}
=12
{8e
=13
4a
8a
8cc#
=14
8a
8a
8a}
=15
{8e
=16
8a
8a
8a
8cc#
=17
8a
8a
8a}
==
*-
!!!minrhy: 16
!!!meters: 2/4 ]  ZZ[6
!!!cut: So reiden de Heren, S. 10f
!!!reg: Luxemburg
!!!trd: Die Luxemburger Volkslieder &auml;lterer Zeit, Luxemburg 1904 posth.
!!!rhy1: X_  X__X_X_  X__X_   (x2)
!!!rhy2: X_  X_X_X_X_  X__X_
!!!key: L0004  16  A 2/4 ]  ZZ[6
!!!mod: VIERTONSKALA ]  AMBITUS[7
!!!kad: 111111
!!!akz: 11_11_11_11_11_11_
!!!fot: 'a__av_av_av_av_av_
!!!for: 'a__b__c__d__c__e__
!!!fok: '^a_^a_^a_^a_^a_^a_
!! PHRAS[AUFTAKTIG]
!!!fkt: Kinderlied, Reigenlied, Kinderliedterno - erweitert
!! FONTAINE, Ed.:
!! PR[0] 2K[0] 2G[0] 3K[0] 3G[0] 4A[11] 4Ü[0] 5A[0] 6K[0] 6G[11]
!! 7K[0] 7G[0] 8A[0] MEHR[0] SI[22] ABS[9] SR[0] SP[22]
!! ST[3] 2k[11] 2g[44] 3k[11] 3g[0] 4d[11] 4ü[0] 5d[0] 6k[0] 6g[0]
!! 7k[0] 7g[0] 8d[0] mehr[0] si[78] dm[-56] sr[56] sp[22]
!! 1F[80] 2F[20] 3F[0] 4F[0] LF[0] 2P[0] 3P[0] 4P[0] TRI[0] DF[2] AB[10]
!! TF[0] U3K[0] U3[0] U4[0] U4Ü[0] U5[0] U6K[10] U6[0] U7K[10] U7[0]
!! N1[20] N2K[10] N2[0] N3K[30] N3[0] N4[20] N4Ü[0] N5[0] N6K[0] N6[0]
!!!n7k: 0] N7[0] O1[0] O2K[0] O2[0] O3K[0] O3[0] HÖ[0
!!!RNB: symbol: &auml;      = a umlaut  (UTF-8: Å„)
